icons/themes/default/invopop.svg

<svg viewBox="0 0 17 16" fill="none" xmlns="http://www.w3.org/2000/svg">
<path d="M3.1869 2.85355C2.87191 2.53857 3.095 2 3.54045 2H10.8333L12.9798 4.14645C13.2948 4.46143 13.0717 5 12.6262 5H5.33334L3.1869 2.85355Z" fill="currentColor"/>
<path d="M5.33334 6H12.8333C13.1095 6 13.3333 6.22386 13.3333 6.5C13.3333 6.77614 13.1095 7 12.8333 7H6.9369C6.71417 7 6.60263 7.26929 6.76012 7.42678L7.33334 8H10.8333L12.9798 10.1464C13.2948 10.4614 13.0717 11 12.6262 11H5.33334L3.1869 8.85355C2.87191 8.53857 3.095 8 3.54045 8H5.33334L7.33334 10H11.2298C11.4525 10 11.5641 9.73071 11.4066 9.57322L10.8333 9H7.33334L2.9369 4.60355C2.87059 4.53725 2.83334 4.44732 2.83334 4.35355C2.83334 4.03857 3.21417 3.88083 3.4369 4.10355L5.33334 6Z" fill="currentColor"/>
<path d="M5.33334 13H12.8333C13.1095 13 13.3333 12.7761 13.3333 12.5C13.3333 12.2239 13.1095 12 12.8333 12H5.33334L3.4369 10.1036C3.21417 9.88083 2.83334 10.0386 2.83334 10.3536C2.83334 10.4473 2.87059 10.5372 2.9369 10.6036L5.33334 13Z" fill="currentColor"/>
</svg>

<svg xmlns="http://www.w3.org/2000/svg" fill="none" viewBox="0 0 17 16">
  <path fill="currentColor" d="M3.187 2.854A.5.5 0 0 1 3.54 2h7.293l2.147 2.146a.5.5 0 0 1-.354.854H5.333L3.187 2.854Z"/>
  <path fill="currentColor" d="M5.333 6h7.5a.5.5 0 1 1 0 1H6.937a.25.25 0 0 0-.177.427L7.333 8h3.5l2.147 2.146a.5.5 0 0 1-.354.854H5.333L3.187 8.854A.5.5 0 0 1 3.54 8h1.793l2 2h3.897a.25.25 0 0 0 .177-.427L10.833 9h-3.5L2.937 4.604a.354.354 0 1 1 .5-.5L5.333 6Z"/>
  <path fill="currentColor" d="M5.333 13h7.5a.5.5 0 1 0 0-1h-7.5l-1.896-1.896a.354.354 0 1 0-.5.5L5.333 13Z"/>
</svg>
